X:1
T:Title
%%score { ( 1 3 ) | 2 }
L:1/8
Q:1/4=100
M:3/4
K:G
V:1 treble nm="Grand Piano"
V:3 treble 
V:2 treble 
V:1
 G2 D2 G2 | B3 A G2 | A2 G2 [FA]2 | [GB]6 | [Gc]2 [Gd]2 [Ge]2 | [Gd]3 [B,GB] [B,EG]2 | %6
w: William~Kirkpatrick * *||||||
 [^CEG]2 [CEA]2 [CGB]2 | [DFA]6 | D2 E2 F2 | G3 D D2 | G2 A2 [GB]2 | [Gc]6 | [Gc]2 [Gd]2 [Ge]2 | %13
w: |||||||
 [Gd]3 [B,GB] [B,EG]2 | [CEA]2 [B,DG]2 [A,DF]2 | [G,B,DG]6 | [Gd]4 z2 | e2 d3 B | %18
w: |||||
 [FA]2 [EG]2 [FA]2 | [GB]6 | [Gd]4 z2 | e>d d4 | B2 A2 G2 |[M:9/8] [Fd]8- [Fd] |[M:3/4] D2 E2 F2 | %25
w: |||||||
 G3 D D2 | G2 A2 [GB]2 | [Gc]6 | [Gc]2 [Gd]2 [Ge]2 | [Gd]3 [B,GB] [B,EG]2 | %30
w: |||||
 [CEA]2 [B,DG]2 [A,DF]2 | [G,B,DG]6 |] %32
w: ||
V:2
 [G,B,D]2 [G,B,]2 [G,B,D]2 | [G,DG]3 [G,CD][K:bass] [G,B,D]2 | [D,CD]2 [D,B,D]2 [D,D]2 | [G,D]6 | %4
 [E,C]2 [D,B,]2 [C,C]2 | [D,B,]3 D, E,2 | A,,2 A,,2 A,,2 | D,6 | D,2 E,2 F,2 | G,3 [G,B,] [G,B,]2 | %10
 [G,B,D]2 [F,CD]2 [=F,D]2 | [E,C]6 | [E,C]2 [D,B,]2 [^C,_B,]2 | [D,B,]3 D, E,2 | C,2 D,2 D,2 | %15
 G,,6 | [G,B,]2 G,2[K:treble] [G,B,G]>[G,B,G] | [G,CG]2 [G,B,G]3 [G,DG] | [D,D]2 [D,D]2 [D,D]2 | %19
 [G,D]6 | [G,B,]2 G,2[K:treble] [G,B,G]>[G,B,G] | [G,CG]>[G,B,G] [G,B,G]4 | %22
 [G,DG]2[K:bass] [F,D]2 [E,^C]2 |[M:9/8] [D,A,]8- [D,A,] |[M:3/4] D,2 E,2 F,2 | %25
 G,3 [G,B,] [G,B,]2 | [G,B,D]2 [F,CD]2 [=F,D]2 | [E,C]6 | [E,C]2 [D,B,]2 [^C,_B,]2 | %29
 [D,B,]3 D, E,2 | C,2 D,2 D,2 | G,,6 |] %32
V:3
 x6 | x6 | x6 | x6 | x6 | x6 | x6 | x6 | x6 | x6 | x6 | x6 | x6 | x6 | x6 | x6 | z2 B,2 d>d | x6 | %18
 x6 | x6 | z2 B,2 d>d | x6 | x6 |[M:9/8] x9 |[M:3/4] x6 | x6 | x6 | x6 | x6 | x6 | x6 | x6 |] %32

